icons-dark/actions/22/deep-history.svg

<svg xmlns="http://www.w3.org/2000/svg" viewBox="0 0 22 22">
  <defs id="defs3051">
    <style type="text/css" id="current-color-scheme">
      .ColorScheme-Text {
        color:#f2f2f2
      }
      .ColorScheme-Highlight {
        color:#3daee9;
      }
      </style>
  </defs>
 <path 
    style="fill:currentColor;fill-opacity:1;stroke:none" 
	d="m11 3c-4.431998 0-8 3.568002-8 8 0 4.431998 3.568002 8 8 8 1.896399 0 3.632791-.656291 5-1.751953v-1.248047h-.09375c-1.261408 1.237774-2.99118 2-4.90625 2-3.877999 0-7-3.122001-7-7 0-3.877999 3.122001-7 7-7 3.877999 0 7 3.122001 7 7 0 .696167-.105435 1.366247-.292969 2h1.033203c.163714-.639651.259766-1.307916.259766-2 0-4.431998-3.568002-8-8-8m-1 2v7h1 5v-1h-5v-6h-1"
	class="ColorScheme-Text"
    />
  <path
    style="fill:currentColor;fill-opacity:1;stroke:none" 
    d="m13.65625 14v1h.845703 1.998047a1.5 1.5 0 0 1 1.5 1.5 1.5 1.5 0 0 1 -1.5 1.5v1a2.5 2.5 0 0 0 2.5 -2.5 2.5 2.5 0 0 0 -2.5 -2.5h-2.84375"
	class="ColorScheme-Highlight"
     id="path10" />
</svg>

<?xml version="1.0" encoding="UTF-8" standalone="no"?>
<!-- Created with Inkscape (http://www.inkscape.org/) -->

<svg
   xmlns:dc="http://purl.org/dc/elements/1.1/"
   xmlns:cc="http://creativecommons.org/ns#"
   xmlns:rdf="http://www.w3.org/1999/02/22-rdf-syntax-ns#"
   xmlns:svg="http://www.w3.org/2000/svg"
   xmlns="http://www.w3.org/2000/svg"
   xmlns:sodipodi="http://sodipodi.sourceforge.net/DTD/sodipodi-0.dtd"
   xmlns:inkscape="http://www.inkscape.org/namespaces/inkscape"
   width="22"
   height="22"
   id="svg3813"
   version="1.1"
   inkscape:version="0.91 r13725"
   sodipodi:docname="deep-history.svg">
  <defs
     id="defs3815">
    <style
       type="text/css"
       id="current-color-scheme">
      .ColorScheme-Text {
        color:#f2f2f2;
      }
      .ColorScheme-Background {
        color:#eff0f1;
      }
      .ColorScheme-Highlight {
        color:#3daee9;
      }
      .ColorScheme-ViewText {
        color:#31363b;
      }
      .ColorScheme-ViewBackground {
        color:#fcfcfc;
      }
      .ColorScheme-ViewHover {
        color:#93cee9;
      }
      .ColorScheme-ViewFocus{
        color:#3daee9;
      }
      .ColorScheme-ButtonText {
        color:#31363b;
      }
      .ColorScheme-ButtonBackground {
        color:#eff0f1;
      }
      .ColorScheme-ButtonHover {
        color:#93cee9;
      }
      .ColorScheme-ButtonFocus{
        color:#3daee9;
      }
      </style>
  </defs>
  <sodipodi:namedview
     id="base"
     pagecolor="#ffffff"
     bordercolor="#666666"
     borderopacity="1.0"
     inkscape:pageopacity="0.0"
     inkscape:pageshadow="2"
     inkscape:zoom="16"
     inkscape:cx="2.1582321"
     inkscape:cy="14.053549"
     inkscape:document-units="px"
     inkscape:current-layer="layer1"
     showgrid="true"
     fit-margin-top="0"
     fit-margin-left="0"
     fit-margin-right="0"
     fit-margin-bottom="0"
     inkscape:window-width="1920"
     inkscape:window-height="1017"
     inkscape:window-x="0"
     inkscape:window-y="0"
     inkscape:window-maximized="1"
     inkscape:showpageshadow="false">
    <inkscape:grid
       type="xygrid"
       id="grid4109" />
    <sodipodi:guide
       position="2.0000072,19.999993"
       orientation="18,0"
       id="guide4115" />
    <sodipodi:guide
       position="2.0000072,1.9999929"
       orientation="0,18"
       id="guide4117" />
    <sodipodi:guide
       position="20.000007,1.9999929"
       orientation="-18,0"
       id="guide4119" />
    <sodipodi:guide
       position="20.000007,19.999993"
       orientation="0,-18"
       id="guide4121" />
    <sodipodi:guide
       position="3.0000072,18.999993"
       orientation="16,0"
       id="guide4123" />
    <sodipodi:guide
       position="3.0000072,2.9999929"
       orientation="0,16"
       id="guide4125" />
    <sodipodi:guide
       position="19.000007,2.9999929"
       orientation="-16,0"
       id="guide4127" />
    <sodipodi:guide
       position="19.000007,18.999993"
       orientation="0,-16"
       id="guide4129" />
  </sodipodi:namedview>
  <metadata
     id="metadata3818">
    <rdf:RDF>
      <cc:Work
         rdf:about="">
        <dc:format>image/svg+xml</dc:format>
        <dc:type
           rdf:resource="http://purl.org/dc/dcmitype/StillImage" />
        <dc:title></dc:title>
      </cc:Work>
    </rdf:RDF>
  </metadata>
  <g
     inkscape:label="Capa 1"
     inkscape:groupmode="layer"
     id="layer1"
     transform="translate(-378.85714,-540.07647)">
    <path
       style="opacity:1;fill:#f2f2f2;fill-opacity:1;stroke:none"
       d="M 11 3 C 6.5680018 3 3 6.5680018 3 11 C 3 15.431998 6.5680018 19 11 19 C 12.896399 19 14.632791 18.343709 16 17.248047 L 16 16 L 15.90625 16 C 14.644842 17.237774 12.91507 18 11 18 C 7.1220013 18 4 14.877999 4 11 C 4 7.1220013 7.1220013 4 11 4 C 14.877999 4 18 7.1220013 18 11 C 18 11.696167 17.894565 12.366247 17.707031 13 L 18.740234 13 C 18.903948 12.360349 19 11.692084 19 11 C 19 6.5680018 15.431998 3 11 3 z M 10 5 L 10 12 L 11 12 L 16 12 L 16 11 L 11 11 L 11 5 L 10 5 z "
       transform="translate(378.85714,540.07647)"
       id="rect4131" />
    <path
       style="fill:#1d99f3;fill-opacity:1;stroke:none;stroke-width:2;stroke-linecap:square;stroke-miterlimit:4;stroke-dasharray:none;stroke-opacity:1"
       d="M 13.65625 14 L 13.65625 15 L 14.501953 15 L 16.5 15 A 1.5 1.5 0 0 1 18 16.5 A 1.5 1.5 0 0 1 16.5 18 L 16.5 19 A 2.5 2.5 0 0 0 19 16.5 A 2.5 2.5 0 0 0 16.5 14 L 13.65625 14 z "
       transform="translate(378.85714,540.07647)"
       id="path4144" />
  </g>
</svg>
